svgs/brands/square-google-plus.svg

<svg xmlns="http://www.w3.org/2000/svg" viewBox="0 0 448 512"><!--! Font Awesome Free 7.2.0 by @fontawesome - https://fontawesome.com License - https://fontawesome.com/license/free (Icons: CC BY 4.0, Fonts: SIL OFL 1.1, Code: MIT License) Copyright 2026 Fonticons, Inc. --><path fill="currentColor" d="M448 96c0-35.3-28.7-64-64-64L64 32C28.7 32 0 60.7 0 96L0 416c0 35.3 28.7 64 64 64l320 0c35.3 0 64-28.7 64-64l0-320zM64 256c0-55.3 44.7-100 100-100 27 0 49.5 9.8 67 26.2l-27.1 26.1c-7.4-7.1-20.3-15.4-39.8-15.4-34.1 0-61.9 28.2-61.9 63.2 0 34.9 27.8 63.2 61.9 63.2 39.6 0 54.4-28.5 56.8-43.1l-56.9 0 0-34.4 94.4 0c1 5 1.6 10.1 1.6 16.6 0 57.1-38.3 97.6-96 97.6-55.3 0-100-44.7-100-100zm291 18.2l0 29-29.2 0 0-29-29 0 0-29.2 29 0 0-29 29.2 0 0 29 29 0 0 29.2-29 0z"/></svg>

<svg xmlns="http://www.w3.org/2000/svg" viewBox="0 0 448 512"><!--! Font Awesome Free 6.5.2 by @fontawesome - https://fontawesome.com License - https://fontawesome.com/license/free (Icons: CC BY 4.0, Fonts: SIL OFL 1.1, Code: MIT License) Copyright 2024 Fonticons, Inc. --><path d="M448 96c0-35.3-28.7-64-64-64H64C28.7 32 0 60.7 0 96V416c0 35.3 28.7 64 64 64H384c35.3 0 64-28.7 64-64V96zM64 256c0-55.3 44.7-100 100-100c27 0 49.5 9.8 67 26.2l-27.1 26.1c-7.4-7.1-20.3-15.4-39.8-15.4c-34.1 0-61.9 28.2-61.9 63.2c0 34.9 27.8 63.2 61.9 63.2c39.6 0 54.4-28.5 56.8-43.1H164V241.8h94.4c1 5 1.6 10.1 1.6 16.6c0 57.1-38.3 97.6-96 97.6c-55.3 0-100-44.7-100-100zm291 18.2v29H325.8v-29h-29V245h29V216H355v29h29v29.2H355z"/></svg>
